X: 14092
T: Freudian, The
R: slip jig
M: 9/8
K: Dminor
Adc AGB|Ade f3|efe dcA|cAG GFG|Adc AGF|Ade fdf|efe dcA|AGF D>EF/G/:|
AFD DEF|EDC EFE|D>EF/G/ AGA|dCA GFG|AFD DEF|EDC EFE|D>EF/G/ AGA|EDC D3:|
F2A cde|fcB AcA|fcA BAG|FAc B2A|F2A cde|fcB AcA|fcA BAG|EDC D3:|

